<?xml version="1.0" encoding="UTF-8"?>
<map version="1.10" tiledversion="1.12.1" orientation="orthogonal" renderorder="right-down" width="31" height="25" tilewidth="32" tileheight="32" infinite="0" nextlayerid="3" nextobjectid="15">
 <tileset firstgid="1" source="map1tileset.tsx"/>
 <layer id="1" name="ground" width="31" height="25">
  <data encoding="csv">
0,0,0,0,0,0,0,0,0,0,0,0,0,0,0,0,0,0,0,0,0,0,0,0,0,0,0,0,0,0,0,
0,0,0,0,0,0,0,0,0,0,0,0,0,0,0,0,0,0,0,0,0,0,0,0,0,0,0,0,0,0,0,
0,0,0,0,0,0,0,0,0,0,0,0,0,0,0,0,0,0,0,0,0,0,0,0,0,0,0,0,0,0,0,
0,0,0,0,0,0,0,0,0,0,0,0,0,0,0,0,0,0,0,0,0,0,0,0,0,0,0,0,0,0,0,
0,0,0,0,0,0,0,0,0,0,0,0,0,0,0,0,0,0,0,0,0,0,0,0,0,0,0,0,0,0,0,
0,0,0,0,0,0,0,0,0,0,0,0,0,0,0,0,0,0,0,0,0,0,0,0,0,0,0,0,0,0,0,
0,0,0,0,0,0,0,0,0,0,0,0,0,0,0,0,0,0,0,0,0,0,0,0,0,0,0,0,0,0,0,
0,0,0,0,1,1,1,1,1,1,0,0,0,0,0,0,0,0,0,0,1,1,1,1,1,1,1,0,0,0,0,
0,0,0,0,0,0,0,0,0,0,0,0,0,0,0,0,0,0,0,0,0,0,0,0,0,0,0,0,0,0,0,
0,0,0,0,0,0,0,0,0,0,0,0,0,0,0,0,0,0,0,0,0,0,0,0,0,0,0,0,0,0,0,
0,0,0,0,0,0,0,0,0,0,0,0,1,1,1,1,1,1,0,0,0,0,0,0,0,0,0,0,0,0,0,
0,0,0,0,0,0,0,0,0,0,0,0,0,0,0,0,0,0,0,0,0,0,0,0,0,0,0,0,0,0,0,
0,0,0,0,0,0,0,0,0,0,0,0,0,0,0,0,0,0,0,0,0,0,0,0,0,0,0,0,0,0,0,
0,0,0,0,0,1,1,1,1,0,0,0,0,0,0,0,0,0,0,0,0,1,1,1,1,1,1,0,0,0,0,
0,0,0,0,1,1,1,1,1,1,0,0,0,0,0,0,0,0,0,0,1,2,2,2,2,2,2,0,0,0,0,
0,0,0,0,2,2,2,2,2,2,0,0,0,0,0,0,0,0,0,0,2,2,2,2,2,2,2,0,0,0,0,
0,0,0,0,2,2,2,2,2,2,0,0,0,0,0,0,0,0,0,0,2,2,2,2,2,2,2,0,0,0,0,
0,0,0,0,0,2,2,2,2,2,0,0,0,0,0,0,0,0,0,0,2,2,2,2,2,2,2,0,0,0,0,
0,0,0,0,0,2,2,2,2,0,0,0,0,0,0,0,0,0,0,0,0,2,2,2,2,2,2,0,0,0,0,
0,0,0,0,0,2,2,2,2,0,0,0,0,0,0,0,0,0,0,0,0,2,2,2,2,2,0,0,0,0,0,
0,0,0,0,0,2,2,2,2,0,0,0,0,0,0,0,0,0,0,0,0,2,2,2,2,2,0,0,0,0,0,
0,0,0,0,0,2,2,2,2,0,0,0,0,0,0,0,0,0,0,0,0,2,2,2,2,2,0,0,0,0,0,
0,0,0,0,0,0,2,2,2,0,0,0,0,0,0,0,0,0,0,0,0,0,2,2,2,0,0,0,0,0,0,
0,0,0,0,0,0,2,2,2,0,0,0,0,0,0,0,0,0,0,0,0,0,2,2,2,0,0,0,0,0,0,
0,0,0,0,0,0,2,2,0,0,0,0,0,0,0,0,0,0,0,0,0,0,2,2,0,0,0,0,0,0,0
</data>
 </layer>
 <objectgroup id="2" name="groundcollision">
  <object id="1" x="126.316" y="223.593" width="190.2" height="30.49"/>
  <object id="2" x="640.29" y="225.045" width="222.142" height="30.49"/>
  <object id="3" x="383.303" y="316.515" width="190.2" height="31.9419"/>
  <object id="4" x="672.232" y="415.245" width="190.2" height="190.2"/>
  <object id="5" x="641.742" y="445.735" width="29.0381" height="130.672"/>
  <object id="6" x="673.684" y="603.993" width="155.354" height="98.7296"/>
  <object id="7" x="704.174" y="704.174" width="94.3739" height="60.98"/>
  <object id="8" x="701.27" y="766.606" width="65.3358" height="33.3938"/>
  <object id="9" x="158.258" y="418.149" width="126.316" height="30.49"/>
  <object id="10" x="127.768" y="447.187" width="191.652" height="92.922"/>
  <object id="11" x="156.806" y="543.013" width="161.162" height="29.0381"/>
  <object id="12" x="158.258" y="573.503" width="130.672" height="129.22"/>
  <object id="13" x="188.748" y="702.722" width="97.2777" height="62.4319"/>
  <object id="14" x="190.2" y="763.702" width="66.7877" height="34.8457"/>
 </objectgroup>
</map>
